dist/svg/u1F420.svg

<?xml version="1.0" encoding="UTF-8"?><svg id="Layer_1" xmlns="http://www.w3.org/2000/svg" viewBox="0 0 40 40"><g><path d="M26.83028,32.96359s-6.73892,3.19254-16.00959,3.03044c-1.03099-.01803-1.70916-1.0931-1.29196-2.03608l3.71337-8.3933,13.58818,7.39894Z" style="fill:#1e6ef4;"/><path d="M26.83028,7.03641s-6.73892-3.19254-16.00959-3.03044c-1.03099,.01803-1.70916,1.0931-1.29196,2.03608l3.71337,8.3933,13.58818-7.39894Z" style="fill:#1e6ef4;"/><path d="M4.92038,25.36912l6.03421-5.37703-6.02677-5.35591c-.83756-.74433-2.1821-.40064-2.52355,.66657-.67224,2.10108-1.29019,5.54763-.0233,9.38013,.35469,1.07299,1.69569,1.43807,2.53941,.68624Z" style="fill:#1e6ef4;"/><path d="M8.68761,16.2366c-1.47318,2.16872-1.47318,5.36227,0,7.53099,2.82218,4.15465,7.97083,10.26086,13.85452,10.26086,5.80083,0,10.88718-5.93545,13.73391-10.0842,1.55059-2.25979,1.55059-5.62452,0-7.88432-2.84673-4.14875-7.93308-10.0842-13.73391-10.0842-5.88369,0-11.03234,6.10622-13.85452,10.26086Z" style="fill:#93c9ff;"/><path d="M25.86053,33.39742c5.86382-2.16253,10.56611-9.42075,12.21779-12.26145,.36693-.63108,.36692-1.65693-.00003-2.288-1.65171-2.84051-6.35397-10.09877-12.21776-12.26128,0,0-12.4472,13.41461,0,26.81072Z" style="fill:#64a7ff;"/><circle cx="30.74917" cy="17.9021" r="1.85085"/><path d="M17.98028,23.48828l4.7507-3.49268-4.74484-3.47897c-.6594-.48348-1.71796-.26024-1.98678,.43297-.52925,1.36477-1.01576,3.6035-.01834,6.09293,.27925,.69697,1.33501,.93411,1.99926,.44575Z" style="fill:#64a7ff;"/></g><rect width="40" height="40" style="fill:none;"/></svg>

<svg id="Layer_1" data-name="Layer 1" xmlns="http://www.w3.org/2000/svg" viewBox="0 0 40 40"><defs><style>.cls-1{fill:#1e6ef4;}.cls-2{fill:#93c9ff;}.cls-3{fill:#64a7ff;}.cls-4{fill:none;}</style></defs><path class="cls-1" d="M26.83,32.964a39.287,39.287,0,0,1-16.009,3.03,1.45,1.45,0,0,1-1.292-2.036l3.713-8.393Z"/><path class="cls-1" d="M26.83,7.036a39.287,39.287,0,0,0-16.009-3.03A1.45,1.45,0,0,0,9.529,6.042l3.713,8.393Z"/><path class="cls-1" d="M4.92,25.369l6.035-5.377L4.928,14.636A1.562,1.562,0,0,0,2.4,15.3a15.183,15.183,0,0,0-.023,9.38A1.575,1.575,0,0,0,4.92,25.369Z"/><path class="cls-2" d="M8.688,16.237a6.966,6.966,0,0,0,0,7.531c2.822,4.154,7.97,10.26,13.854,10.26,5.8,0,10.887-5.935,13.734-10.084a7.261,7.261,0,0,0,0-7.884C33.429,11.911,28.343,5.976,22.542,5.976,16.658,5.976,11.51,12.082,8.688,16.237Z"/><path class="cls-3" d="M25.861,33.4c5.863-2.162,10.566-9.42,12.217-12.261a2.515,2.515,0,0,0,0-2.288c-1.651-2.841-6.354-10.1-12.217-12.261C25.861,6.587,13.413,20,25.861,33.4Z"/><circle cx="30.749" cy="17.902" r="1.851"/><path class="cls-3" d="M17.98,23.488,22.731,20l-4.745-3.479A1.347,1.347,0,0,0,16,16.95a8.235,8.235,0,0,0-.018,6.093A1.358,1.358,0,0,0,17.98,23.488Z"/><rect class="cls-4" width="40" height="40"/></svg>
